X:221
T:Idle Time
C:Mike Compton
N:From"The Nashville Bluegrass Band" Transcribed by John Baldry Transcribed by Mike Stangeland
R:bluegrass
L:1/8
Q:1/4=186
M:4/4
K:G
g4 [d'4g4] | g2 [d'g][d'g] [d'2g2] AG | d[^cD] [=cD][GG,] [^A/G/]B/[GG,] [BD][cD] | 
[d2D2] [c2D2] [^A2D2] [B2D2] | [d'4g4] [d'2g2] [d'2g2] | [d'2g2] [d'2g2] [d'2g2] [BD][cD] | 
[dD]g [dD][cD] [BD][GG,] [FG,][DG,] | [GG,]G [G2G,2] [GG,][DG,] [=FG,][^FG,] | 
[G2G,2] [e2A2G2G,2] g4 | [d'4g4] [d'2g2] [d'2g2] | [dD][^cD] [=cD][GG,] [^A/G/]B/[GG,] [BD][cD] | 
[d2D2] [c2D2] [^A2D2] [AD]B | g4 g4 | g4 g2 [BD][cD] | [dD]g [dD][cD] [^A/D/]B/[GG,] [FG,][DG,] | 
[GG,][DG,] [FG,][DG,] [=F2G,2] [dFG,][DG,] | [c2E2G,2] [E2G,2] [EG,]{f}g gg | 
{a}^aa a2 ag ab | {f}g{=f}^f dc ^A/B/G AB | [d2D2] [c2D2] [BD][BG] [B=F][DG,] | 
[c2E2G,2] [c2E2G,2] [cEG,][gA] gg | (3a^aa a2 ag ab | gf dc ^A/B/G AB | d2 ^c2 B/=c/G ^A/B/G | 
[G2G,2] [e2B2G2G,2] g4 | 


